svg/flutter.svg

<svg viewBox="0 0 20 20" xmlns="http://www.w3.org/2000/svg">
<rect width="100%" height="100%" fill="#5FC9F8"/>
<path d="M5.65426 12.1542L3.5 10L10.5 3H14.8076L5.65426 12.1542Z" fill="white"/>
<path d="M14.8076 9.46187L11.039 13.2305L14.8076 17H10.5L8.88476 15.3848L6.73048 13.2305L10.5 9.46187H14.8076ZM10.5 3L3.5 10L5.65426 12.1542L14.8076 3H10.5Z" fill="white"/>
</svg>

<svg xmlns="http://www.w3.org/2000/svg" viewBox="0 0 20 20">
  <rect width="100%" height="100%" fill="#5FC9F8"/>
  <path fill="#fff" d="M5.65 12.15 3.5 10l7-7h4.3l-9.15 9.15Z"/>
  <path fill="#fff" d="m14.8 9.46-3.76 3.77L14.8 17H10.5l-1.62-1.62-2.15-2.15 3.77-3.77h4.3ZM10.5 3l-7 7 2.15 2.15L14.81 3H10.5Z"/>
</svg>
